trunk/WorldWind/resources/milstd2525/icons/war/sfpav----------.svg

<?xml version="1.0" encoding="UTF-8" standalone="no"?>
<!--
Copyright (C) 2012 United States Government as represented by the Administrator of the
National Aeronautics and Space Administration.
All Rights Reserved.
-->

<!--
MIL-STD-2525 tactical symbol icon image. During icon composition this image is multiplied by the desired frame color 
(e.g. black), then drawn on top of the frame and fill.
-->

<svg
   xmlns:dc="http://purl.org/dc/elements/1.1/"
   xmlns:cc="http://creativecommons.org/ns#"
   xmlns:rdf="http://www.w3.org/1999/02/22-rdf-syntax-ns#"
   xmlns:svg="http://www.w3.org/2000/svg"
   xmlns="http://www.w3.org/2000/svg"
   xmlns:sodipodi="http://sodipodi.sourceforge.net/DTD/sodipodi-0.dtd"
   xmlns:inkscape="http://www.inkscape.org/namespaces/inkscape"
   height="400px"
   viewBox="0 0 400 400"
   width="400px"
   id="svg2"
   version="1.1"
   inkscape:version="0.48.2 r9819"
   sodipodi:docname="sfpav----------.svg">
  <metadata
     id="metadata12">
    <rdf:RDF>
      <cc:Work
         rdf:about="">
        <dc:format>image/svg+xml</dc:format>
        <dc:type
           rdf:resource="http://purl.org/dc/dcmitype/StillImage" />
      </cc:Work>
    </rdf:RDF>
  </metadata>
  <defs
     id="defs10" />
  <sodipodi:namedview
     pagecolor="#ffffff"
     bordercolor="#666666"
     borderopacity="1"
     objecttolerance="10"
     gridtolerance="10"
     guidetolerance="10"
     inkscape:pageopacity="0"
     inkscape:pageshadow="2"
     inkscape:window-width="640"
     inkscape:window-height="480"
     id="namedview8"
     showgrid="false"
     inkscape:zoom="0.59"
     inkscape:cx="200"
     inkscape:cy="200"
     inkscape:window-x="0"
     inkscape:window-y="0"
     inkscape:window-maximized="0"
     inkscape:current-layer="svg2" />
  <g
     transform="matrix(5.75,0,0,5.75,119,85)"
     id="g4"
     style="stroke:#000000;stroke-width:1.04347825;stroke-miterlimit:4;stroke-opacity:1;stroke-dasharray:2.08695652, 1.04347826;stroke-dashoffset:0">
    <path
       inkscape:connector-curvature="0"
       d="m 28.08,32.361 c -0.961,0.191 -2.377,0.432 -4.248,0.719 -0.912,0.098 -2.279,0.193 -4.104,0.289 -0.145,0.432 -0.193,1.006 -0.145,1.725 -0.289,0 -0.816,0.098 -1.584,0.289 -0.02,0 -0.02,0.48 0,1.438 l -3.313,-0.072 c -0.096,0.332 -0.311,1.375 -0.646,3.127 -0.145,-0.719 -0.314,-1.699 -0.506,-2.945 -0.096,-0.096 -1.248,-0.145 -3.455,-0.145 0,-0.094 0.023,-0.297 0.072,-0.609 0.047,-0.313 0.072,-0.539 0.072,-0.684 C 9.694,35.206 9.118,35.061 8.494,35.061 8.494,34.87 8.469,34.608 8.422,34.272 8.373,33.936 8.35,33.672 8.35,33.481 5.664,33.098 2.879,32.715 0,32.332 L 0,30.535 C -0.049,29.674 0.264,28.812 0.936,27.949 2.52,26.273 4.799,23.711 7.776,20.261 8.401,19.495 8.784,18.681 8.928,17.818 9.6,14.177 10.104,11.568 10.44,9.986 11.112,6.922 11.76,4.431 12.385,2.513 12.959,0.838 13.512,0 14.041,0 c 0.287,0 0.646,0.457 1.078,1.367 0.863,1.773 1.584,4.1 2.16,6.975 0.383,2.207 0.768,4.436 1.152,6.688 0.191,0.912 0.553,2.23 1.08,3.957 0.238,0.574 0.672,1.27 1.297,2.084 1.246,1.344 2.494,2.686 3.744,4.027 2.352,2.637 3.527,4.268 3.527,4.891 l 0,2.372 z"
       style="fill:#ffffff;stroke:#000000;stroke-width:1.04347825;stroke-miterlimit:4;stroke-opacity:1;stroke-dasharray:2.08695652, 1.04347826;stroke-dashoffset:0"
       id="path6" />
  </g>
</svg>

<?xml version="1.0"?>
<!--
Copyright (C) 2012 United States Government as represented by the Administrator of the
National Aeronautics and Space Administration.
All Rights Reserved.
-->

<!DOCTYPE svg PUBLIC "-//W3C//DTD SVG 1.1//EN" "http://www.w3.org/Graphics/SVG/1.1/DTD/svg11.dtd" >
<!--
MIL-STD-2525 tactical symbol icon image. During icon composition this image is multiplied by the desired frame color 
(e.g. black), then drawn on top of the frame and fill.
-->
<svg xmlns:xlink="http://www.w3.org/1999/xlink" height="400px" viewBox="0 0 400 400" width="400px"><g transform="translate(119 85) scale(5.75 5.75)"><path d="M28.08 32.361 C27.119 32.552 25.703 32.793 23.832 33.08 C22.92 33.178 21.553 33.273      19.728 33.369 C19.583 33.801 19.535 34.375 19.583 35.094 C19.294 35.094 18.767      35.192 17.999 35.383 C17.979 35.383 17.979 35.863 17.999 36.821 L14.686      36.749 C14.59 37.081 14.375 38.124 14.04 39.876 C13.895 39.157 13.726 38.177      13.534 36.931 C13.438 36.835 12.286 36.786 10.079 36.786 C10.079 36.692 10.102      36.489 10.151 36.177 C10.198 35.864 10.223 35.638 10.223 35.493 C9.694      35.206 9.118 35.061 8.494 35.061 C8.494 34.87 8.469 34.608 8.422 34.272 C8.373      33.936 8.35 33.672 8.35 33.481 C5.664 33.098 2.879 32.715 0 32.332 L0 30.535      C-0.049 29.674 0.264 28.812 0.936 27.949 C2.52 26.273 4.799 23.711 7.776      20.261 C8.401 19.495 8.784 18.681 8.928 17.818 C9.6 14.177 10.104 11.568 10.44      9.986 C11.112 6.922 11.76 4.431 12.385 2.513 C12.959 0.838 13.512 0 14.041      0 C14.328 0 14.687 0.457 15.119 1.367 C15.982 3.14 16.703 5.467 17.279 8.342      C17.662 10.549 18.047 12.778 18.431 15.03 C18.622 15.942 18.984 17.26 19.511      18.987 C19.749 19.561 20.183 20.257 20.808 21.071 C22.054 22.415 23.302      23.757 24.552 25.098 C26.904 27.735 28.079 29.366 28.079 29.989 L28.079 32.361      z" style="fill:rgb(255,255,255)"/></g></svg>
